packages/nodes-base/nodes/Microsoft/Dynamics/dynamicsCrm.svg

<svg fill="#000000" xmlns="http://www.w3.org/2000/svg"  viewBox="0 0 50 50" width="50px" height="50px"><path d="M 11.986328 0 C 11.815078 0.002 11.645188 0.048671875 11.492188 0.13867188 C 11.188188 0.31867188 11 0.646 11 1 L 11 13.353516 C 11 13.737516 11.219406 14.089859 11.566406 14.255859 L 29.566406 22.900391 C 29.703406 22.966391 29.853 23 30 23 C 30.194 23 30.387688 22.943031 30.554688 22.832031 L 39.554688 16.832031 C 39.844687 16.639031 40.013047 16.307984 39.998047 15.958984 C 39.984047 15.610984 39.789375 15.295953 39.484375 15.126953 L 12.484375 0.12695312 C 12.329375 0.040953125 12.157578 -0.002 11.986328 0 z M 12.025391 17 C 11.850016 16.9955 11.674625 17.038453 11.515625 17.126953 C 11.197625 17.302953 11 17.636 11 18 L 11 48.998047 C 11 49.758047 11.813469 50.241953 12.480469 49.876953 L 40.496094 33.867188 C 40.808094 33.689188 41 33.359 41 33 L 41 20 C 41 19.592 40.753 19.225266 40.375 19.072266 C 39.995 18.920266 39.562297 19.011688 39.279297 19.304688 L 13 47 L 20.955078 23.294922 C 21.088078 22.861922 20.913297 22.392344 20.529297 22.152344 L 12.529297 17.152344 C 12.374797 17.055844 12.200766 17.0045 12.025391 17 z"/></svg>

<svg xmlns="http://www.w3.org/2000/svg" width="50" height="50"><path d="M11.986 0A1 1 0 0 0 11 1v12.354a1 1 0 0 0 .566.902l18 8.644a1 1 0 0 0 .989-.068l9-6a.997.997 0 0 0-.07-1.705l-27-15a1 1 0 0 0-.5-.127m.04 17a1 1 0 0 0-.51.127A1 1 0 0 0 11 18v30.998a1 1 0 0 0 1.48.879l28.016-16.01A1 1 0 0 0 41 33V20a1 1 0 0 0-1.72-.695L13 47l7.955-23.705a1 1 0 0 0-.426-1.143l-8-5a1 1 0 0 0-.504-.152"/></svg>
